X: 18665
T: I'll Have Another
R: slip jig
M: 9/8
K: Gmajor
dGG dge dBG|dGG dcB ABc|dGG dge dBG|EFG AcB A3:|
BEE BGB AFD|BEE BGB ABd|BEE BGB AFD|EFG AcB A3:|
G2G BGB AFD|G2 G BGB ABd|G2 G BGB AFD|EFG AcB A3:|

